public/static/img/user/lang_icon.svg

<svg width="24" height="24" viewBox="0 0 24 24" fill="none" xmlns="http://www.w3.org/2000/svg">
<path d="M2 12C2 6.47709 6.47709 2 12 2C17.5229 2 22 6.47709 22 12C22 17.5229 17.5229 22 12 22C6.47709 22 2 17.5229 2 12ZM12 3.50406C10.6699 3.50386 9.35838 3.81595 8.17094 4.4152C6.98351 5.01445 5.95336 5.88413 5.16342 6.95423C4.37348 8.02432 3.84582 9.26494 3.62292 10.5762C3.40002 11.8875 3.4881 13.2328 3.88008 14.5038C3.90663 14.5113 3.93274 14.5204 3.95829 14.5308C5.13145 15.0021 5.61075 14.8457 5.79926 14.6732C5.82232 14.6532 5.8875 14.5679 5.94265 14.2992C5.98676 14.0836 6.00782 13.845 6.03289 13.5552L6.05294 13.3316C6.08804 12.9706 6.13717 12.5304 6.27554 12.1304C6.41893 11.7132 6.68164 11.274 7.17999 11.0023C7.77559 10.6774 8.37822 10.8469 8.79134 11.0324C9.13025 11.1858 9.49022 11.4194 9.80006 11.62L9.98456 11.7393C10.3696 11.985 10.6895 12.1664 10.9812 12.2527C11.244 12.3309 11.4325 12.3159 11.612 12.2156C11.691 12.1773 11.7596 12.1204 11.812 12.0499C11.8644 11.9794 11.8989 11.8972 11.9128 11.8105C11.9609 11.5829 11.9449 11.2861 11.8947 10.8679C11.8875 10.8074 11.8802 10.7469 11.8727 10.6865C11.8295 10.3435 11.7764 9.92339 11.7924 9.54036C11.8155 9.05906 11.9509 8.49153 12.4442 8.06237C13.128 7.46776 13.9463 7.41863 14.4115 7.39055C14.4807 7.38755 14.5419 7.38354 14.593 7.37852C14.8427 7.35546 14.8978 7.32037 14.9079 7.31335L14.9099 7.31134L14.9129 7.30833C14.9199 7.29931 14.926 7.28956 14.9309 7.27925C14.9683 7.19765 14.9926 7.1107 15.0031 7.02156C15.0272 6.86714 15.0262 6.77088 15.0202 6.71573C15.0184 6.69874 15.015 6.68196 15.0101 6.6656C15.0101 6.66058 15.0081 6.65657 15.0081 6.65657L15.0061 6.65457L15.0041 6.65156C14.9493 6.6051 14.8906 6.56349 14.8286 6.52722L14.7715 6.49413C14.5376 6.36508 14.3224 6.20486 14.1318 6.01785C13.851 5.72907 13.6474 5.34904 13.5542 4.83465V4.83064C13.4754 4.43167 13.4254 4.02753 13.4048 3.62138C12.9406 3.54368 12.4707 3.50445 12 3.50406ZM12 20.4959C12.3159 20.4959 12.6287 20.4779 12.9355 20.4448C12.6347 19.9525 12.3991 19.2817 12.4121 18.4494C12.4181 17.9942 12.4903 17.6162 12.6327 17.2933C12.7791 16.9624 12.9786 16.7388 13.1641 16.5713C13.2694 16.4755 13.3781 16.3836 13.49 16.2956C13.6134 16.1983 13.6464 16.1723 13.6946 16.0479C13.7247 15.9657 13.7467 15.8263 13.7567 15.5566L13.7608 15.4062C13.7678 15.1896 13.7748 14.9139 13.8109 14.6562C13.859 14.3193 13.9643 13.9202 14.236 13.5612C14.5168 13.1902 14.9219 12.9335 15.4413 12.7911C16.4701 12.5104 17.6172 12.7972 18.5527 13.2504C19.1409 13.5349 19.6852 13.9023 20.1691 14.3413C20.7591 12.281 20.5491 10.0738 19.5809 8.16183C18.6127 6.24984 16.9579 4.77421 14.948 4.03048C14.968 4.18089 14.9961 4.35937 15.0322 4.56392C15.0773 4.80959 15.1535 4.91286 15.2107 4.97202C15.2839 5.04723 15.3621 5.09435 15.5285 5.19463L15.6047 5.23975C15.7912 5.35305 16.1131 5.55059 16.3207 5.9246C16.5352 6.31064 16.5653 6.75885 16.4881 7.25419C16.4059 7.7786 16.2023 8.2238 15.8053 8.5196C15.4383 8.79234 15.0161 8.84949 14.7334 8.87556L14.4366 8.90163C13.9683 8.93874 13.7036 8.95979 13.4309 9.19743C13.3687 9.25058 13.3065 9.34383 13.2945 9.60854C13.2845 9.8512 13.3166 10.1159 13.3597 10.4608L13.3877 10.6895C13.4369 11.0986 13.489 11.625 13.3817 12.1263C13.2634 12.6768 13.0007 13.1591 12.3911 13.5001L12.3439 13.5291C11.7222 13.8761 11.0966 13.856 10.5531 13.6956C10.0377 13.5432 9.55841 13.2524 9.17437 13.0067L8.94174 12.8563C8.63592 12.6598 8.39727 12.5054 8.17367 12.4051C8.08794 12.3631 7.99573 12.336 7.90093 12.3249H7.89692C7.83375 12.359 7.76256 12.4282 7.69638 12.6217C7.62318 12.8322 7.58408 13.108 7.54998 13.471L7.53394 13.6515C7.51197 13.9696 7.47247 14.2862 7.41562 14.6C7.33942 14.971 7.19001 15.4393 6.81199 15.7852C6.22942 16.3167 5.47639 16.428 4.66921 16.2966C5.41828 17.5756 6.48908 18.6363 7.77516 19.3732C9.06123 20.1101 10.5178 20.4975 12 20.4969V20.4959ZM14.608 20.0878C16.748 19.395 18.5272 17.884 19.5574 15.8845C19.2065 15.4323 18.6008 14.945 17.8969 14.604C17.1148 14.225 16.3668 14.0977 15.8394 14.2421C15.5817 14.3122 15.4824 14.4065 15.4343 14.4697C15.3781 14.5449 15.329 14.6622 15.3009 14.8667C15.2768 15.0322 15.2728 15.1956 15.2668 15.3982L15.2598 15.6138C15.2498 15.8805 15.2287 16.2475 15.0984 16.5864C14.8888 17.1319 14.4506 17.4698 14.2521 17.6232C14.217 17.6503 14.1889 17.6723 14.1719 17.6874C14.1018 17.7451 14.0458 17.8182 14.0084 17.9009C13.9683 17.9922 13.9202 18.1596 13.9162 18.4715C13.9011 19.4261 14.4025 19.9404 14.5308 20.0277C14.5578 20.0461 14.5836 20.0662 14.608 20.0878Z" fill="white"/>
</svg>

<svg width="24" height="24" fill="none" xmlns="http://www.w3.org/2000/svg"><path d="M2 12C2 6.477 6.477 2 12 2s10 4.477 10 10-4.477 10-10 10S2 17.523 2 12Zm10-8.496a8.496 8.496 0 0 0-8.12 11 .744.744 0 0 1 .078.027c1.173.471 1.653.315 1.841.142.023-.02.088-.105.144-.374.044-.215.065-.454.09-.744l.02-.223c.035-.361.084-.802.223-1.202.143-.417.406-.856.904-1.128.596-.325 1.198-.155 1.611.03.34.154.7.387 1.01.588l.184.12c.385.245.705.426.996.513.263.078.451.063.631-.037a.546.546 0 0 0 .3-.405c.049-.228.033-.525-.017-.943a35.92 35.92 0 0 0-.022-.181c-.043-.343-.097-.764-.08-1.147.023-.48.158-1.048.651-1.478.684-.594 1.502-.643 1.967-.671.07-.003.13-.007.182-.012.25-.024.305-.059.315-.066l.002-.002.003-.003a.159.159 0 0 0 .018-.029.86.86 0 0 0 .072-.257c.024-.155.023-.251.017-.306a.276.276 0 0 0-.01-.05l-.002-.01-.002-.001-.002-.003a1.238 1.238 0 0 0-.175-.125l-.058-.033a3.008 3.008 0 0 1-.64-.476c-.28-.289-.484-.669-.577-1.183V4.83a8.45 8.45 0 0 1-.15-1.21A8.553 8.553 0 0 0 12 3.504Zm0 16.992c.316 0 .629-.018.935-.051a3.684 3.684 0 0 1-.523-1.996c.006-.455.078-.833.22-1.156.147-.33.347-.554.532-.722.105-.096.214-.187.326-.275.123-.098.156-.124.205-.248.03-.082.052-.222.062-.491l.004-.15c.007-.217.014-.493.05-.75.048-.338.153-.737.425-1.096.28-.37.686-.627 1.205-.77 1.03-.28 2.176.006 3.112.46a6.835 6.835 0 0 1 1.616 1.09 8.5 8.5 0 0 0-5.221-10.31c.02.15.048.328.084.533.045.246.121.349.179.408.073.075.151.122.317.223l.077.045c.186.113.508.31.716.685.214.386.244.834.167 1.33-.082.524-.286.969-.683 1.265-.367.272-.789.33-1.072.356l-.296.026c-.469.037-.733.058-1.006.295-.062.054-.124.147-.136.412-.01.242.022.507.065.852l.028.229c.049.409.101.935-.006 1.436-.119.55-.381 1.033-.99 1.374l-.048.03c-.622.346-1.247.326-1.79.166-.516-.153-.996-.444-1.38-.69l-.232-.15c-.306-.196-.545-.35-.768-.45a.843.843 0 0 0-.273-.081h-.004c-.063.034-.134.103-.2.297-.074.21-.113.486-.147.849l-.016.18a8.672 8.672 0 0 1-.118.949c-.077.371-.226.84-.604 1.185-.583.532-1.336.643-2.143.512a8.492 8.492 0 0 0 7.331 4.2v-.001Zm2.608-.408a8.52 8.52 0 0 0 4.95-4.204c-.352-.452-.957-.939-1.661-1.28-.782-.379-1.53-.506-2.058-.362-.257.07-.357.164-.405.228-.056.075-.105.192-.133.397-.024.165-.028.329-.034.531l-.007.216c-.01.266-.031.633-.162.972-.21.546-.647.884-.846 1.037l-.08.064a.593.593 0 0 0-.164.214c-.04.091-.088.259-.092.57-.015.955.486 1.47.615 1.557a.775.775 0 0 1 .077.06Z" fill="#fff"/></svg>
